docs/images/benchmarks/h264.svg

<svg height="28" viewBox="0 0 92 28" width="92" xmlns="http://www.w3.org/2000/svg" xmlns:xlink="http://www.w3.org/1999/xlink"><mask id="a" fill="#fff"><path d="m0 0h92v28h-92z" fill="#fff" fill-rule="evenodd"/></mask><path d="m62.2331827 13.9805064c2.6316579 0 4.0669826 2.0137263 4.0669826 4.5312878 0 2.2075091-1.6061967 4.1437223-4.0330376 4.1437223-2.289914 0-3.759413-1.8589308-3.759413-4.1822481 0-2.4790357 1.5380772-4.492762 3.725468-4.492762zm20.9489054-6.62229658h.0685782v8.71376668h-6.0839602zm8.8179119 8.71376668h-3.1100995v-15.41357636h-5.5708854l-10.6637881 14.83268936v6.1576792h10.4245673v6.0028836h5.8101062v-6.0028836h3.1100995zm-28.878283-10.92127577c.512616 0 1.1279845.07774382 1.6747748.42609147.5470197.42609147.9571125 1.00697849 1.1963333 2.09123941h5.4341878c-.7176623-4.91862276-4.0672119-7.35820982-8.3052959-7.35820982-7.2114859 0-10.4243379 6.42874445-10.4243379 14.01949361 0 6.9323491 2.4951897 13.6706846 9.5016292 13.6706846 5.1949671 0 9.5355742-3.5628352 9.5355742-9.9528231 0-4.9183921-3.3495496-8.90731878-7.7243312-8.90731878-2.2896846 0-4.3745522.65816945-5.5708854 2.86567858h-.0683488c.1022938-3.05946138 1.435554-6.85483597 4.7506999-6.85483597zm-11.6527813 16.92415937h-11.3128723c1.5722516-1.7041351 2.4610153-2.4010611 4.3066621-3.6403483 3.4860179-2.4785743 6.7669894-4.3377357 6.7669894-9.56571891 0-5.770575-4.2039096-8.5589711-8.9204351-8.5589711-5.9126294 0-9.7406206 4.53128785-9.3647023 11.23109751h5.4344173c0-2.94342233.8885343-5.4607532 3.9644594-5.4607532 1.8798212 0 3.0761544 1.23928716 3.0761544 3.36928312 0 1.82040488-1.2988564 3.13697448-3.1103288 4.49253128-1.8795919 1.3553261-4.1695058 2.710883-6.2204284 4.7246093-2.3582627 2.3237787-3.6910642 5.5380356-3.7252386 8.9850625h19.1053229zm-27.4097014 5.5767922h6.3571259v-7.2034142h-6.3571259zm-2.9713377-27.6516523h-6.3571259v10.0693235h-8.37364476v-10.0693235h-6.35712594v27.6516523h6.35712594v-11.3861237h8.37364476v11.3861237h6.3571259z" fill="#9b9b9b" fill-rule="evenodd" mask="url(#a)"/></svg>

<?xml version="1.0" encoding="UTF-8"?>
<svg width="92px" height="28px" viewBox="0 0 92 28" version="1.1" xmlns="http://www.w3.org/2000/svg" xmlns:xlink="http://www.w3.org/1999/xlink">
    <!-- Generator: Sketch 49.3 (51167) - http://www.bohemiancoding.com/sketch -->
    <title>Page 1 Copy 2</title>
    <desc>Created with Sketch.</desc>
    <defs>
        <polygon id="path-1" points="0 0 92 0 92 28 0 28"></polygon>
    </defs>
    <g id="Page-1" stroke="none" stroke-width="1" fill="none" fill-rule="evenodd">
        <g id="Benchmarks" transform="translate(-432.000000, -606.000000)">
            <g id="Page-1-Copy-2" transform="translate(432.000000, 606.000000)">
                <mask id="mask-2" fill="white">
                    <use xlink:href="#path-1"></use>
                </mask>
                <g id="Clip-2"></g>
                <path d="M62.2331827,13.9805064 C64.8648406,13.9805064 66.3001653,15.9942327 66.3001653,18.5117942 C66.3001653,20.7193033 64.6939686,22.6555165 62.2671277,22.6555165 C59.9772137,22.6555165 58.5077147,20.7965857 58.5077147,18.4732684 C58.5077147,15.9942327 60.0457919,13.9805064 62.2331827,13.9805064 Z M83.1820881,7.35820982 L83.2506663,7.35820982 L83.2506663,16.0719765 L77.1667061,16.0719765 L83.1820881,7.35820982 Z M92,16.0719765 L88.8899005,16.0719765 L88.8899005,0.658400138 L83.3190151,0.658400138 L72.655227,15.4910895 L72.655227,21.6487687 L83.0797943,21.6487687 L83.0797943,27.6516523 L88.8899005,27.6516523 L88.8899005,21.6487687 L92,21.6487687 L92,16.0719765 Z M63.121717,5.15070073 C63.634333,5.15070073 64.2497015,5.22844455 64.7964918,5.5767922 C65.3435115,6.00288367 65.7536043,6.58377069 65.9928251,7.66803161 L71.4270129,7.66803161 C70.7093506,2.74940885 67.359801,0.309821789 63.121717,0.309821789 C55.9102311,0.309821789 52.6973791,6.73856624 52.6973791,14.3293154 C52.6973791,21.2616645 55.1925688,28 62.1990083,28 C67.3939754,28 71.7345825,24.4371648 71.7345825,18.0471769 C71.7345825,13.1287848 68.3850329,9.13985812 64.0102513,9.13985812 C61.7205667,9.13985812 59.6356991,9.79802757 58.4393659,12.0055367 L58.3710171,12.0055367 C58.4733109,8.94607532 59.8065711,5.15070073 63.121717,5.15070073 Z M51.4689357,22.0748601 L40.1560634,22.0748601 C41.728315,20.370725 42.6170787,19.673799 44.4627255,18.4345118 C47.9487434,15.9559375 51.2297149,14.0967761 51.2297149,8.86879289 C51.2297149,3.09821789 47.0258053,0.309821789 42.3092798,0.309821789 C36.3966504,0.309821789 32.5686592,4.84110964 32.9445775,11.5409193 L38.3789948,11.5409193 C38.3789948,8.59749697 39.2675291,6.0801661 42.3434542,6.0801661 C44.2232754,6.0801661 45.4196086,7.31945326 45.4196086,9.44944922 C45.4196086,11.2698541 44.1207522,12.5864237 42.3092798,13.9419805 C40.4296879,15.2973066 38.139774,16.6528635 36.0888514,18.6665898 C33.7305887,20.9903685 32.3977872,24.2046254 32.3636128,27.6516523 L51.4689357,27.6516523 L51.4689357,22.0748601 Z M24.0592343,27.6516523 L30.4163602,27.6516523 L30.4163602,20.4482381 L24.0592343,20.4482381 L24.0592343,27.6516523 Z M21.0878966,0 L14.7307707,0 L14.7307707,10.0693235 L6.35712594,10.0693235 L6.35712594,0 L0,0 L0,27.6516523 L6.35712594,27.6516523 L6.35712594,16.2655286 L14.7307707,16.2655286 L14.7307707,27.6516523 L21.0878966,27.6516523 L21.0878966,0 Z" id="Fill-1" fill="#9B9B9B" mask="url(#mask-2)"></path>
            </g>
        </g>
    </g>
</svg>
